X:115
T:Rolling Waves
M:6/8
R:Jig
Z:Transcribed by Luisa
K:D
F2E EDE|~F2D DED|~F2E EFA|d2e fdA|\
F2E EDE|~F2D DED|AFE EFA|~B3 ~d3:|\
ABd e2f|d2c ~B2A|ABd e2f|d2A B3|\
ABd ede|fdB BAF|AFE EFA|~B3 d3:|
